svg/fluentui-system-icons/ic_fluent_vault_20_filled.svg

<svg width="20" height="20" viewBox="0 0 20 20" fill="none" xmlns="http://www.w3.org/2000/svg">
<path d="M12 11C12.5523 11 13 10.5523 13 10C13 9.44772 12.5523 9 12 9C11.4477 9 11 9.44772 11 10C11 10.5523 11.4477 11 12 11ZM2 7C2 5.34315 3.34315 4 5 4H15C16.6569 4 18 5.34315 18 7V13C18 14.6569 16.6569 16 15 16H5C3.34315 16 2 14.6569 2 13V7ZM5.5 7C5.22386 7 5 7.22386 5 7.5V12.5C5 12.7761 5.22386 13 5.5 13C5.77614 13 6 12.7761 6 12.5V7.5C6 7.22386 5.77614 7 5.5 7ZM14.3536 7.64645C14.1583 7.45118 13.8417 7.45118 13.6464 7.64645L13.016 8.27691C12.7182 8.10096 12.3709 8 12 8C11.6291 8 11.2818 8.10097 10.984 8.27691L10.3536 7.64645C10.1583 7.45118 9.84171 7.45118 9.64645 7.64645C9.45118 7.84171 9.45118 8.15829 9.64645 8.35355L10.2769 8.98402C10.101 9.28177 10 9.6291 10 10C10 10.3709 10.101 10.7182 10.2769 11.016L9.64645 11.6464C9.45118 11.8417 9.45118 12.1583 9.64645 12.3536C9.84171 12.5488 10.1583 12.5488 10.3536 12.3536L10.984 11.7231C11.2818 11.899 11.6291 12 12 12C12.3709 12 12.7182 11.899 13.016 11.7231L13.6464 12.3536C13.8417 12.5488 14.1583 12.5488 14.3536 12.3536C14.5488 12.1583 14.5488 11.8417 14.3536 11.6464L13.7231 11.016C13.899 10.7182 14 10.3709 14 10C14 9.6291 13.899 9.28177 13.7231 8.98402L14.3536 8.35355C14.5488 8.15829 14.5488 7.84171 14.3536 7.64645Z" fill="#212121"/>
</svg>

<svg xmlns="http://www.w3.org/2000/svg" width="20" height="20"><path d="M12 11a1 1 0 1 0 0-2 1 1 0 0 0 0 2ZM2 7a3 3 0 0 1 3-3h10a3 3 0 0 1 3 3v6a3 3 0 0 1-3 3H5a3 3 0 0 1-3-3V7Zm3.5 0a.5.5 0 0 0-.5.5v5a.5.5 0 0 0 1 0v-5a.5.5 0 0 0-.5-.5Zm8.854.646a.5.5 0 0 0-.708 0l-.63.63A1.99 1.99 0 0 0 12 8c-.37 0-.718.101-1.016.277l-.63-.63a.5.5 0 0 0-.708.707l.63.63A1.991 1.991 0 0 0 10 10c0 .37.101.718.277 1.016l-.63.63a.5.5 0 0 0 .707.708l.63-.63a2 2 0 0 0 2.032-.001l.63.63a.5.5 0 0 0 .708-.707l-.63-.63a2 2 0 0 0-.001-2.032l.63-.63a.5.5 0 0 0 0-.708Z"/></svg>
